teeny/solid/unlock-circle.svg

<svg width="15" height="15" viewBox="0 0 15 15" fill="none" xmlns="http://www.w3.org/2000/svg">
<path fill-rule="evenodd" clip-rule="evenodd" d="M0 7.5C0 3.35786 3.35786 0 7.5 0C11.6421 0 15 3.35786 15 7.5C15 11.6421 11.6421 15 7.5 15C3.35786 15 0 11.6421 0 7.5ZM7.62132 4C6.72589 4 6 4.72589 6 5.62132V6H9.5C10.3284 6 11 6.67157 11 7.5V10.5C11 11.3284 10.3284 12 9.5 12H5.5C4.67157 12 4 11.3284 4 10.5V7.5C4 6.84689 4.4174 6.29127 5 6.08535V5.62132C5 4.1736 6.1736 3 7.62132 3C8.31654 3 8.98328 3.27617 9.47487 3.76777L9.85355 4.14645L9.14645 4.85355L8.76777 4.47487C8.46371 4.17082 8.05132 4 7.62132 4Z" fill="black"/>
</svg>

<svg viewBox="0 0 15 15" xmlns="http://www.w3.org/2000/svg"><path fill-rule="evenodd" d="M0 7.5C0 3.35 3.35 0 7.5 0 11.64 0 15 3.35 15 7.5c0 4.14-3.36 7.5-7.5 7.5C3.35 15 0 11.64 0 7.5ZM7.62 4c-.9 0-1.63.72-1.63 1.62v.37h3.5c.82 0 1.5.67 1.5 1.5v3c0 .82-.68 1.5-1.5 1.5h-4c-.83 0-1.5-.68-1.5-1.5v-3c0-.66.41-1.21 1-1.42V5.6c0-1.45 1.17-2.63 2.62-2.63 .69 0 1.36.27 1.85.76l.37.37 -.71.7 -.38-.38c-.31-.31-.72-.48-1.15-.48Z"/></svg>
